svgs/sberinvestments.svg

<svg width="192" height="192" viewBox="0 0 192 192" fill="none" xmlns="http://www.w3.org/2000/svg">
<path d="M21 142.447L67.5 103.869L94 122.407L171 65.7929M21 169L69 129.421L95 147.457L171 92.3462M113 46.2537L121.478 54.7698L140.566 34.2946M144.75 54.2637C141.879 67.7962 128.604 76.4347 115.098 73.5583C101.593 70.6819 92.9718 57.3797 95.8424 43.8472C98.7131 30.3146 111.989 21.6761 125.494 24.5526" stroke="black" stroke-width="10" stroke-linecap="round" stroke-linejoin="round"/>
</svg>

<svg xmlns="http://www.w3.org/2000/svg" width="192" height="192" fill="none"><path stroke="#000" stroke-linecap="round" stroke-linejoin="round" stroke-width="10" d="m21 142.447 46.5-38.578L94 122.407l77-56.614M21 169l48-39.579 26 18.036 76-55.11m-58-46.093 8.478 8.516 19.088-20.475m4.184 19.969c-2.871 13.532-16.146 22.17-29.652 19.294S92.972 57.38 95.842 43.848s16.147-22.172 29.652-19.295"/></svg>
